Gruvbox-Plus-Dark/places/scalable/user-trash-full.svg

<svg width="256" height="256" style="isolation:isolate" version="1.1" viewBox="0 0 256 256" xmlns="http://www.w3.org/2000/svg">
  <path d="m179.1 13c35.3 0 39.1 3.628 38.92 38.99v146c0.174 35.37-3.624 38.99-38.92 38.99h-98.16c-35.3 0-38.92-3.628-38.92-38.99v-146c0-35.37 3.625-38.99 38.92-38.99h98.16z" fill="#83a598"/>
  <g opacity=".2">
    <path d="m42.01 196v2c-0.174 35.37 3.628 38.99 38.92 38.99h98.15c35.3 0 38.01-3.636 38.93-38.99v-2.004c-0.918 35.36-3.628 39-38.92 39h-98.16c-35.3 0-39.1-3.629-38.92-38.99z"/>
    <path d="m42.01 54v-1.999c-0.174-35.37 3.628-38.99 38.92-38.99h98.15c35.3 0 38.01 3.64 38.93 38.99v2.003c-0.918-35.36-3.632-39-38.92-39h-98.16c-35.3 0-39.1 3.628-38.92 38.99z" fill="#ebdbb2"/>
  </g>
  <path d="m124.6 135.7c1.081 0.192 2.261 1.171 2.846 1.961l9.525 16.49-4.906 2.948h16.29l8.148-14.14-5.008 2.846-5.004-8.837c-0.491-0.884-1.474-1.277-2.551-1.277l-19.34 4e-3zm-5.62 0.99c-2.502 0.087-4.932 1.02-5.964 2.834l-7.461 13.06 14.33 8.345 9.132-15.9-3.632-6.085c-1.323-1.573-3.901-2.332-6.407-2.249zm38.8 20.21-14.43 8.247 9.131 15.61h7.756c3.144-0.589 7.857-5.696 5.106-11l-7.559-12.86zm-63.91 3.439 5.2 3.039-3.337 5.597c-2.944 5.5 1.965 11.57 4.91 11.88h7.657l5.204-9.034 5.201 2.85-8.341-14.34-16.49 4e-3zm46.83 16.78-8.345 14.33 8.345 14.24v-5.987h10.21c1.005 0.012 1.925-0.564 2.354-1.474l9.23-16.3c-0.491 0.295-0.786 0.787-2.65 0.983h-19.15v-5.794zm-42.41 5.008c0.393 0.491 0.291 0.393 8.931 15.71 0.59 0.884 1.376 1.965 2.457 1.867h18.36v-16.79h-27.3c-1.474 0-1.988-0.393-2.457-0.786h4e-3z" fill="#ebdbb2"/>
  <g opacity=".2">
    <path d="m74.02 31h112c6.717 0.075 11.13 0.317 13.08 1.398 0.975 0.537 1.542 1.134 2.06 2.517 0.525 1.388 0.854 6.751 0.854 6.751v10.67h0.034v8.001c0 3.16-0.332 5.367-0.854 6.75-0.521 1.387-1.085 1.981-2.064 2.521-1.954 1.077-6.364 1.319-13.08 1.399h-112c-6.716-0.08-11.13-0.322-13.08-1.399-0.979-0.54-1.542-1.134-2.063-2.521-0.522-1.387-0.854-3.59-0.854-6.75v-18.67c0-3.16 0.34-5.363 0.854-6.751 0.521-1.387 1.084-1.98 2.063-2.521 1.954-1.077 6.376-1.315 13.12-1.394z" fill="#ebdbb2"/>
  </g>
  <path d="m74.02 29h112c6.717 0.076 11.13 0.318 13.08 1.399 0.975 0.537 1.542 1.134 2.06 2.517 0.525 1.387 0.854 6.75 0.854 6.75v10.67h0.034v8.002c0 3.159-0.332 5.366-0.854 6.75-0.521 1.387-1.085 1.98-2.064 2.521-1.954 1.077-6.364 1.315-13.08 1.398h-112c-6.716-0.079-11.13-0.321-13.08-1.398-0.979-0.541-1.542-1.134-2.063-2.521-0.522-1.387-0.854-3.591-0.854-6.75v-18.67c0-3.159 0.34-5.363 0.854-6.75 0.521-1.387 1.084-1.98 2.063-2.521 1.954-1.077 6.376-1.319 13.12-1.398v3e-3z" fill="#076678"/>
  <g opacity=".2">
    <path d="m74.02 29h112c6.717 0.076 11.13 0.318 13.08 1.399 0.975 0.537 1.542 1.134 2.06 2.517 0.525 1.387 0.854 6.75 0.854 6.75v10.67h0.034v8.002c0 3.159-0.332 5.366-0.854 6.75-0.521 1.387-1.085 1.98-2.064 2.521-1.954 1.077-6.364 1.315-13.08 1.398h-112c-6.716-0.079-11.13-0.321-13.08-1.398-0.979-0.541-1.542-1.134-2.063-2.521-0.522-1.387-0.854-3.591-0.854-6.75v-18.67c0-3.159 0.34-5.363 0.854-6.75 0.521-1.387 1.084-1.98 2.063-2.521 1.954-1.077 6.376-1.319 13.12-1.398v3e-3z"/>
  </g>
  <g fill="#ebdbb2">
    <path d="m193.7 56.67-128-0.667v-16.77c0-19.25 2.072-21.23 22.28-21.23h83.44c20.21 0 22.28 1.977 22.28 21.23v17.44z"/>
    <path d="m193.8 68.12-128.1 0.25 0.064-17.15c0-19.25 2.072-21.23 22.28-21.23h83.44c20.21 0 22.28 1.977 22.28 21.23l0.062 16.9z"/>
    <path d="m65.69 63.23c0-19.25 2.072-21.23 22.28-21.23h83.44c20.21 0 22.28 1.977 22.28 21.23l-128-1e-3z"/>
    <path d="m176 69c-33.88 0.186-103 0.404-110.4-0.283 0-19.25 2.12-20.72 22.33-20.72h83.44c20.21 0 22.33 1.467 22.33 20.72-1.937 0.344-8.171 0.231-17.72 0.283z"/>
  </g>
</svg>

<svg xmlns="http://www.w3.org/2000/svg" style="isolation:isolate" width="256" height="256" viewBox="0 0 256 256">
 <defs>
  <filter id="3IGNHAERp4r3znUdigZiXfewxpZBvKlX" width="400%" height="400%" x="-200%" y="-200%" color-interpolation-filters="sRGB" filterUnits="objectBoundingBox">
   <feGaussianBlur xmlns="http://www.w3.org/2000/svg" stdDeviation="4.294"/>
  </filter>
 </defs>
 <g opacity=".4" filter="url(#3IGNHAERp4r3znUdigZiXfewxpZBvKlX)">
  <path d="M 179.079 15 C 214.38 15 218.174 18.628 218 53.994 L 218 200.009 C 218.174 235.378 214.376 239.002 179.079 239.002 L 80.924 239.002 C 45.623 239.002 42.002 235.374 42.002 200.009 L 42.002 53.994 C 42.002 18.625 45.627 15 80.924 15 L 179.079 15 Z"/>
 </g>
 <linearGradient id="_lgradient_5" x1=".5" x2=".5" y1="0" y2="1" gradientTransform="matrix(176.004,0,0,224.002,42.002,12.998)" gradientUnits="userSpaceOnUse">
  <stop offset="0%" style="stop-color:rgb(26,214,171)"/>
  <stop offset="100%" style="stop-color:rgb(50,157,182)"/>
 </linearGradient>
 <path fill="#83a598" d="M 179.079 12.998 C 214.38 12.998 218.174 16.626 218 51.991 L 218 198.007 C 218.174 233.376 214.376 237 179.079 237 L 80.924 237 C 45.623 237 42.002 233.372 42.002 198.007 L 42.002 51.991 C 42.002 16.622 45.627 12.998 80.924 12.998 L 179.079 12.998 Z"/>
 <g opacity=".2">
  <path d="M 42.006 196.007 L 42.006 198.007 C 41.832 233.376 45.634 237 80.928 237 L 179.082 237 C 214.383 237 217.09 233.364 218.008 198.007 L 218.008 196.003 C 217.09 231.365 214.38 235.001 179.086 235.001 L 80.931 235.001 C 45.63 235.001 41.832 231.372 42.006 196.007 Z"/>
 </g>
 <g opacity=".2">
  <path fill="#ebdbb2" d="M 42.006 53.998 L 42.006 51.999 C 41.832 16.63 45.634 13.005 80.928 13.005 L 179.082 13.005 C 214.383 13.005 217.09 16.645 218.008 51.999 L 218.008 54.002 C 217.09 18.641 214.376 15.005 179.086 15.005 L 80.931 15.005 C 45.63 15.005 41.832 18.633 42.006 53.998 Z"/>
 </g>
 <path fill="#ebdbb2" d="M 124.581 135.724 C 125.662 135.916 126.842 136.895 127.427 137.685 L 136.952 154.179 L 132.046 157.127 L 148.34 157.127 L 156.488 142.988 L 151.48 145.834 L 146.476 136.997 C 145.985 136.113 145.002 135.72 143.925 135.72 L 124.581 135.724 Z M 118.961 136.714 C 116.459 136.801 114.029 137.734 112.997 139.548 L 105.536 152.607 L 119.868 160.952 L 129 145.048 L 125.368 138.963 C 124.045 137.39 121.467 136.631 118.961 136.714 Z M 157.766 156.927 L 143.332 165.174 L 152.463 180.783 L 160.219 180.783 C 163.363 180.194 168.076 175.087 165.325 169.785 L 157.766 156.927 Z M 93.854 160.366 L 99.054 163.405 L 95.717 169.002 C 92.773 174.502 97.682 180.568 100.627 180.882 L 108.284 180.882 L 113.488 171.848 L 118.689 174.698 L 110.348 160.362 L 93.854 160.366 Z M 140.682 177.151 L 132.337 191.483 L 140.682 205.721 L 140.682 199.734 L 150.895 199.734 C 151.9 199.746 152.82 199.17 153.249 198.26 L 162.479 181.962 C 161.988 182.257 161.693 182.749 159.829 182.945 L 140.682 182.945 L 140.682 177.151 Z M 98.272 182.159 C 98.665 182.65 98.563 182.552 107.203 197.867 C 107.793 198.751 108.579 199.832 109.66 199.734 L 128.021 199.734 L 128.021 182.945 L 100.725 182.945 C 99.251 182.945 98.737 182.552 98.268 182.159 L 98.272 182.159 Z"/>
 <g opacity=".2">
  <path fill="#ebdbb2" d="M 74.022 31 L 185.991 31 C 192.708 31.075 197.122 31.317 199.076 32.398 C 200.051 32.935 200.618 33.532 201.136 34.915 C 201.661 36.303 201.99 41.666 201.99 41.666 L 201.99 52.332 L 202.024 52.332 L 202.024 60.333 C 202.024 63.493 201.692 65.7 201.17 67.083 C 200.649 68.47 200.085 69.064 199.106 69.604 C 197.152 70.681 192.742 70.923 186.022 71.003 L 73.988 71.003 C 67.272 70.923 62.861 70.681 60.907 69.604 C 59.928 69.064 59.365 68.47 58.844 67.083 C 58.322 65.696 57.99 63.493 57.99 60.333 L 57.99 41.666 C 57.99 38.506 58.33 36.303 58.844 34.915 C 59.365 33.528 59.928 32.935 60.907 32.394 C 62.861 31.317 67.283 31.079 74.022 31 Z"/>
 </g>
 <linearGradient id="_lgradient_6" x1=".5" x2=".5" y1="0" y2="1" gradientTransform="matrix(144.035,0,0,40.006,57.99,28.997)" gradientUnits="userSpaceOnUse">
  <stop offset="0%" style="stop-color:rgb(26,214,171)"/>
  <stop offset="100%" style="stop-color:rgb(50,157,182)"/>
 </linearGradient>
 <path fill="#076678" d="M 74.022 29 L 185.991 29 C 192.708 29.076 197.122 29.318 199.076 30.399 C 200.051 30.936 200.618 31.533 201.136 32.916 C 201.661 34.303 201.99 39.666 201.99 39.666 L 201.99 50.332 L 202.024 50.332 L 202.024 58.334 C 202.024 61.493 201.692 63.7 201.17 65.084 C 200.649 66.471 200.085 67.064 199.106 67.605 C 197.152 68.682 192.742 68.92 186.022 69.003 L 73.988 69.003 C 67.272 68.924 62.861 68.682 60.907 67.605 C 59.928 67.064 59.365 66.471 58.844 65.084 C 58.322 63.697 57.99 61.493 57.99 58.334 L 57.99 39.666 C 57.99 36.507 58.33 34.303 58.844 32.916 C 59.365 31.529 59.928 30.936 60.907 30.395 C 62.861 29.318 67.283 29.076 74.022 28.997 L 74.022 29 Z"/>
 <g opacity=".2">
  <path d="M 74.022 29 L 185.991 29 C 192.708 29.076 197.122 29.318 199.076 30.399 C 200.051 30.936 200.618 31.533 201.136 32.916 C 201.661 34.303 201.99 39.666 201.99 39.666 L 201.99 50.332 L 202.024 50.332 L 202.024 58.334 C 202.024 61.493 201.692 63.7 201.17 65.084 C 200.649 66.471 200.085 67.064 199.106 67.605 C 197.152 68.682 192.742 68.92 186.022 69.003 L 73.988 69.003 C 67.272 68.924 62.861 68.682 60.907 67.605 C 59.928 67.064 59.365 66.471 58.844 65.084 C 58.322 63.697 57.99 61.493 57.99 58.334 L 57.99 39.666 C 57.99 36.507 58.33 34.303 58.844 32.916 C 59.365 31.529 59.928 30.936 60.907 30.395 C 62.861 29.318 67.283 29.076 74.022 28.997 L 74.022 29 Z"/>
 </g>
 <g>
  <path fill="#ebdbb2" d="M 193.688 56.667 L 65.689 56 L 65.689 39.229 C 65.689 19.977 67.761 18 87.97 18 L 171.406 18 C 191.616 18 193.688 19.977 193.688 39.23 L 193.688 56.667 Z"/>
  <path fill="#ebdbb2" d="M 193.75 68.125 L 65.625 68.375 L 65.689 51.229 C 65.689 31.977 67.761 30 87.97 30 L 171.406 30 C 191.616 30 193.688 31.977 193.688 51.23 L 193.75 68.125 Z"/>
  <path fill="#ebdbb2" d="M 65.689 63.228 C 65.689 43.977 67.761 42 87.97 42 L 171.406 42 C 191.616 42 193.688 43.977 193.688 63.229 L 65.689 63.228 Z"/>
  <path fill="#ebdbb2" d="M 176.016 69.002 C 142.137 69.188 72.969 69.406 65.641 68.719 C 65.641 49.467 67.761 47.999 87.97 47.999 L 171.406 47.999 C 191.616 47.999 193.734 49.466 193.734 68.719 C 191.797 69.063 185.563 68.95 176.016 69.002 Z"/>
 </g>
</svg>
